src/16/actions/bitmap-trace.svg

<svg xmlns="http://www.w3.org/2000/svg" viewBox="0 0 16 16">
  <defs id="defs3051">
    <style type="text/css" id="current-color-scheme">
      .ColorScheme-Text {
        color:#5d656b;
      }
      </style>
  </defs>
 <path style="fill:currentColor;fill-opacity:1;stroke:none" 
     d="M 2 2 L 2 13.28125 L 2 14 L 7 14 L 7 13 L 7 12 L 8 11 L 9 10 L 10 9 L 11 8 L 11.5 7.5 L 11 7 L 7.65625 10.34375 L 6.3125 9 L 6.28125 9 L 3 12.28125 L 3 3 L 13 3 L 13 8 L 14 8 L 14 2 L 2 2 z M 6 4 C 4.89543 4 4 4.89543 4 6 C 4 7.10457 4.89543 8 6 8 C 7.10457 8 8 7.10457 8 6 C 8 4.89543 7.10457 4 6 4 z M 12 8 L 11 9 L 10 10 L 8 12 L 8 13 L 8 14 L 10 14 L 10.59375 13.40625 L 11 13 L 12 12 L 13 11 L 14 10 L 12 8 z M 11.6875 9.6875 L 12.28125 10.28125 L 12 10.5625 L 10.59375 11.96875 L 10.59375 12 L 9.3125 13.28125 L 8.71875 12.6875 L 10.59375 10.78125 L 11.6875 9.6875 z "
     class="ColorScheme-Text"
     />
</svg>

<svg xmlns="http://www.w3.org/2000/svg" viewBox="0 0 16 16"><path d="M2 2v12h5v-2l1-1 1-1 1-1 1-1 .5-.5L11 7l-3.344 3.344L6.313 9H6.28L3 12.281V3h10v5h1V2H2zm4 2a2 2 0 1 0 0 4 2 2 0 0 0 0-4zm6 4l-1 1-1 1-2 2v2h2l.594-.594L11 13l1-1 1-1 1-1-2-2zm-.313 1.688l.594.593-.281.281-1.406 1.407V12l-1.281 1.281-.594-.594 1.875-1.906 1.094-1.094z" fill="currentColor" color="#5d656b"/></svg>
